svgs/regular/image-polaroid-user.svg

<svg xmlns="http://www.w3.org/2000/svg" viewBox="0 0 448 512"><!-- Font Awesome Pro 6.0.0-alpha2 by @fontawesome - https://fontawesome.com License - https://fontawesome.com/license (Commercial License) --><path d="M384 32H64C28.654 32 0 60.652 0 96V424C0 459.346 28.654 488 64 488H384C419.346 488 448 459.346 448 424C448 413.299 448 96 448 96C448 60.652 419.346 32 384 32ZM400 424C400 432.822 392.822 440 384 440H64C55.178 440 48 432.822 48 424V376H400V424ZM400 328H332.023C321.795 295.604 291.779 272 256 272H192C156.221 272 126.205 295.604 115.977 328H48V96C48 87.178 55.178 80 64 80H384C392.822 80 400 87.178 400 96V328ZM224 112C188.654 112 160 140.654 160 176S188.654 240 224 240S288 211.346 288 176S259.346 112 224 112Z"/></svg>

<svg xmlns="http://www.w3.org/2000/svg" viewBox="0 0 448 512"><!--! Font Awesome Pro 6.0.0-alpha3 by @fontawesome - https://fontawesome.com License - https://fontawesome.com/license (Commercial License) --><path d="M384 32H64C28.65 32 0 60.65 0 96v328c0 35.35 28.65 64 64 64h320c35.35 0 64-28.65 64-64V96C448 60.65 419.3 32 384 32zM400 424c0 8.822-7.178 16-16 16H64c-8.822 0-16-7.178-16-16v-48h352V424zM400 328h-67.98C321.8 295.6 291.8 272 256 272H192c-35.78 0-65.79 23.6-76.02 56H48V96c0-8.822 7.178-16 16-16h320c8.822 0 16 7.178 16 16V328zM224 112c-35.35 0-64 28.65-64 64s28.65 64 64 64s64-28.65 64-64S259.3 112 224 112z"/></svg>
